icons/fill-ele-communication-phone-telephone.svg

<svg xmlns="http://www.w3.org/2000/svg" width="32px" height="32px" viewBox="0 0 32 32" version="1.1">
    <title>fill-ele-communication-phone-telephone</title>
    <g id="fill-ele-communication-phone-telephone" stroke-width="1" fill-rule="evenodd">
        <path d="M19.5337365,28.5337365 L3.46626349,12.4662635 C3.18340091,12.1834009 3.09632688,11.7591828 3.24489359,11.387766 L6.43677155,3.40807113 C6.64188496,2.89528761 7.2238554,2.64587171 7.73663892,2.85098511 C7.86237952,2.90128135 7.97659383,2.97659383 8.07235502,3.07235502 L13.4599148,8.45991478 C13.7787853,8.77878533 13.8447855,9.27162534 13.6210511,9.6631605 L12.3789489,11.8368395 C12.1552145,12.2283747 12.2212147,12.7212147 12.5400852,13.0400852 L18.9599148,19.4599148 C19.2787853,19.7787853 19.7716253,19.8447855 20.1631605,19.6210511 L22.3368395,18.3789489 C22.7283747,18.1552145 23.2212147,18.2212147 23.5400852,18.5400852 L28.927645,23.927645 C29.3181693,24.3181693 29.3181693,24.9513342 28.927645,25.3418585 C28.8318838,25.4376197 28.7176695,25.5129322 28.5919289,25.5632285 L20.612234,28.7551064 C20.2408172,28.9036731 19.8165991,28.8165991 19.5337365,28.5337365 Z" id="&#24418;&#29366;" />
    </g>
</svg>

<svg xmlns="http://www.w3.org/2000/svg" viewBox="0 0 32 32"><path fill="currentColor" d="M19.534 28.534 3.466 12.466a1 1 0 0 1-.221-1.078l3.192-7.98a1 1 0 0 1 1.635-.336L13.46 8.46a1 1 0 0 1 .161 1.203l-1.242 2.174a1 1 0 0 0 .161 1.203l6.42 6.42a1 1 0 0 0 1.203.161l2.174-1.242a1 1 0 0 1 1.203.161l5.388 5.388a1 1 0 0 1-.336 1.635l-7.98 3.192a1 1 0 0 1-1.078-.221"/></svg>
